logo/google-calendar.svg

<?xml version="1.0" encoding="UTF-8"?>
<svg width="256px" height="256px" viewBox="0 0 256 256" version="1.1" xmlns="http://www.w3.org/2000/svg" xmlns:xlink="http://www.w3.org/1999/xlink" preserveAspectRatio="xMidYMid">
    <g>
        <polygon fill="#FFFFFF" points="195.368421 60.6315789 60.6315789 60.6315789 60.6315789 195.368421 195.368421 195.368421"></polygon>
        <polygon fill="#EA4335" points="195.368421 256 256 195.368421 225.684211 190.196005 195.368421 195.368421 189.835162 223.098002"></polygon>
        <path d="M1.42108547e-14,195.368421 L1.42108547e-14,235.789474 C1.42108547e-14,246.955789 9.04421053,256 20.2105263,256 L60.6315789,256 L66.8568645,225.684211 L60.6315789,195.368421 L27.5991874,190.196005 L1.42108547e-14,195.368421 Z" fill="#188038"></path>
        <path d="M256,60.6315789 L256,20.2105263 C256,9.04421053 246.955789,1.42108547e-14 235.789474,1.42108547e-14 L195.368421,1.42108547e-14 C191.679582,15.0358547 189.835162,26.1010948 189.835162,33.1957202 C189.835162,40.2903456 191.679582,49.4356319 195.368421,60.6315789 C208.777986,64.4714866 218.883249,66.3914404 225.684211,66.3914404 C232.485172,66.3914404 242.590435,64.4714866 256,60.6315789 Z" fill="#1967D2"></path>
        <polygon fill="#FBBC04" points="256 60.6315789 195.368421 60.6315789 195.368421 195.368421 256 195.368421"></polygon>
        <polygon fill="#34A853" points="195.368421 195.368421 60.6315789 195.368421 60.6315789 256 195.368421 256"></polygon>
        <path d="M195.368421,0 L20.2105263,0 C9.04421053,0 0,9.04421053 0,20.2105263 L0,195.368421 L60.6315789,195.368421 L60.6315789,60.6315789 L195.368421,60.6315789 L195.368421,0 Z" fill="#4285F4"></path>
        <path d="M88.2694737,165.153684 C83.2336842,161.751579 79.7473684,156.783158 77.8442105,150.214737 L89.5326316,145.397895 C90.5936842,149.44 92.4463158,152.572632 95.0905263,154.795789 C97.7178947,157.018947 100.917895,158.113684 104.656842,158.113684 C108.48,158.113684 111.764211,156.951579 114.509474,154.627368 C117.254737,152.303158 118.635789,149.338947 118.635789,145.751579 C118.635789,142.08 117.187368,139.082105 114.290526,136.757895 C111.393684,134.433684 107.755789,133.271579 103.410526,133.271579 L96.6568421,133.271579 L96.6568421,121.701053 L102.72,121.701053 C106.458947,121.701053 109.608421,120.690526 112.168421,118.669474 C114.728421,116.648421 116.008421,113.886316 116.008421,110.366316 C116.008421,107.233684 114.863158,104.741053 112.572632,102.871579 C110.282105,101.002105 107.385263,100.058947 103.865263,100.058947 C100.429474,100.058947 97.7010526,100.968421 95.68,102.804211 C93.6602819,104.644885 92.1418208,106.968942 91.2673684,109.557895 L79.6968421,104.741053 C81.2294737,100.395789 84.0421053,96.5557895 88.1684211,93.2378947 C92.2947368,89.92 97.5663158,88.2526316 103.966316,88.2526316 C108.698947,88.2526316 112.96,89.1621053 116.732632,90.9978947 C120.505263,92.8336842 123.469474,95.3768421 125.608421,98.6105263 C127.747368,101.861053 128.808421,105.498947 128.808421,109.541053 C128.808421,113.667368 127.814737,117.153684 125.827368,120.016842 C123.84,122.88 121.397895,125.069474 118.501053,126.602105 L118.501053,127.292632 C122.241568,128.834789 125.490747,131.367752 127.898947,134.618947 C130.341053,137.903158 131.570526,141.827368 131.570526,146.408421 C131.570526,150.989474 130.408421,155.082105 128.084211,158.669474 C125.76,162.256842 122.543158,165.086316 118.467368,167.141053 C114.374737,169.195789 109.776842,170.240124 104.673684,170.240124 C98.7621053,170.256842 93.3052632,168.555789 88.2694737,165.153684 L88.2694737,165.153684 Z M160.067368,107.149474 L147.233684,116.429474 L140.816842,106.694737 L163.84,90.0884211 L172.665263,90.0884211 L172.665263,168.421053 L160.067368,168.421053 L160.067368,107.149474 Z" fill="#4285F4"></path>
    </g>
</svg>

<svg viewBox="0 0 256 256" xmlns="http://www.w3.org/2000/svg"><path fill="#FFF" d="M195.36 60.63l-134.74 0 0 134.73 134.73 0Z"/><path fill="#EA4335" d="M195.36 256l60.63-60.64 -30.32-5.18 -30.32 5.17 -5.54 27.72Z"/><path fill="#188038" d="M0 195.36v40.42c0 11.16 9.04 20.21 20.21 20.21h40.42l6.22-30.32 -6.23-30.32 -33.04-5.18 -27.6 5.17Z"/><path fill="#1967D2" d="M256 60.63V20.2c0-11.17-9.05-20.22-20.22-20.22h-40.43c-3.69 15.03-5.54 26.1-5.54 33.19 0 7.09 1.84 16.23 5.53 27.43 13.4 3.83 23.51 5.75 30.31 5.75 6.8 0 16.9-1.92 30.31-5.76Z"/><path fill="#FBBC04" d="M256 60.63l-60.64 0 0 134.73 60.63 0Z"/><path fill="#34A853" d="M195.36 195.36l-134.74 0 0 60.63 134.73 0Z"/><g fill="#4285F4"><path d="M195.36 0H20.2C9.03 0-.02 9.04-.02 20.21v175.15h60.63V60.62h134.73V-.02Z"/><path d="M88.26 165.15c-5.04-3.41-8.53-8.38-10.43-14.94l11.68-4.82c1.06 4.04 2.91 7.17 5.55 9.39 2.62 2.22 5.82 3.31 9.56 3.31 3.82 0 7.1-1.17 9.85-3.49 2.74-2.33 4.12-5.29 4.12-8.88 0-3.68-1.45-6.67-4.35-9 -2.9-2.33-6.54-3.49-10.88-3.49H96.6v-11.58h6.06c3.73 0 6.88-1.02 9.44-3.04 2.56-2.03 3.84-4.79 3.84-8.31 0-3.14-1.15-5.63-3.44-7.5 -2.3-1.87-5.19-2.82-8.71-2.82 -3.44 0-6.17.9-8.19 2.74 -2.02 1.84-3.54 4.16-4.42 6.75l-11.58-4.82c1.53-4.35 4.34-8.19 8.47-11.51 4.12-3.32 9.39-4.99 15.79-4.99 4.73 0 8.99.9 12.76 2.74 3.77 1.83 6.73 4.37 8.87 7.61 2.13 3.25 3.2 6.88 3.2 10.93 0 4.12-1 7.61-2.99 10.47 -1.99 2.86-4.43 5.05-7.33 6.58v.69c3.74 1.54 6.98 4.07 9.39 7.32 2.44 3.28 3.67 7.2 3.67 11.78 0 4.58-1.17 8.67-3.49 12.26 -2.33 3.58-5.55 6.41-9.62 8.47 -4.1 2.05-8.7 3.09-13.8 3.09 -5.92.01-11.37-1.69-16.41-5.09v0Zm71.79-58.01l-12.84 9.28 -6.42-9.74 23.02-16.61h8.82v78.33h-12.6v-61.28Z"/></g></svg>
